X:1
T: The Countess of Cassilli
C:
R:Reel
Q: 232
K:A
M:4/4
L:1/8
|:F|EC A,C E2 EF|AB cA BB, B,F|EC A,C E2 EF|EF AB cA AF|
EC A,C E2 EF|AB cA BB, B,F|EC A,C E2 EF|EF AB cA Ae|
AA cA eA A=g|fd ec dB Bc|AA cA eA Aa|f1/2g1/2a ef cA Ae|
AA cA eA A=g|fd ec dB Bd|cA GA FA EA|c1/2d1/2e f1/2g1/2a cA A:|
